X:26
T: Ritter und Magd
N: Q0055Y
O: Suedosteuropa, Jugoslawien, Gottschee
N: Grundton in der zweigestrichenen Oktave.
N: Dritte Zeile = Refrain auf sinnfreie Silben.
R: Ballade, Betrug, Schwangerschaft, Tod, Selbstmord, Herr und Magd
M: 6/8
L: 1/8
K: C
G, | C2B,C2D | E2FE2
C | D2CD2E | D3C2
G, | C2B,C2D | E2FE2
C | D2CD2E | D3C2

